Numix-GalliumOS/32/actions/gtk-dnd.svg

<?xml version="1.0" encoding="UTF-8" standalone="no"?>
<svg
   xmlns:dc="http://purl.org/dc/elements/1.1/"
   xmlns:cc="http://creativecommons.org/ns#"
   xmlns:rdf="http://www.w3.org/1999/02/22-rdf-syntax-ns#"
   xmlns:svg="http://www.w3.org/2000/svg"
   xmlns="http://www.w3.org/2000/svg"
   xmlns:sodipodi="http://sodipodi.sourceforge.net/DTD/sodipodi-0.dtd"
   xmlns:inkscape="http://www.inkscape.org/namespaces/inkscape"
   width="32"
   height="32"
   viewBox="0 0 32 32"
   id="svg2"
   version="1.1"
   inkscape:version="0.91 r"
   sodipodi:docname="gtk-dnd.svg">
  <metadata
     id="metadata22">
    <rdf:RDF>
      <cc:Work
         rdf:about="">
        <dc:format>image/svg+xml</dc:format>
        <dc:type
           rdf:resource="http://purl.org/dc/dcmitype/StillImage" />
        <dc:title />
      </cc:Work>
    </rdf:RDF>
  </metadata>
  <defs
     id="defs20" />
  <sodipodi:namedview
     pagecolor="#ffffff"
     bordercolor="#666666"
     borderopacity="1"
     objecttolerance="10"
     gridtolerance="10"
     guidetolerance="10"
     inkscape:pageopacity="0"
     inkscape:pageshadow="2"
     inkscape:window-width="1366"
     inkscape:window-height="747"
     id="namedview18"
     showgrid="true"
     inkscape:zoom="14.75"
     inkscape:cx="12.463979"
     inkscape:cy="16.005368"
     inkscape:window-x="0"
     inkscape:window-y="21"
     inkscape:window-maximized="1"
     inkscape:current-layer="svg2">
    <inkscape:grid
       type="xygrid"
       id="grid4176" />
  </sodipodi:namedview>
  <path
     inkscape:connector-curvature="0"
     id="path6"
     d="m 4.0012655,0.50000593 13.9974725,0 c 3.501233,0 3.501233,0 3.501233,2.87499827 l 0,17.2499898 c 0,2.874998 0,2.874998 -3.501233,2.874998 l -13.9974725,0 c -3.50123282,0 -3.50123282,0 -3.50123282,-2.874998 l 0,-17.2499898 c 0,-2.87499827 0,-2.87499827 3.50123282,-2.87499827 z"
     style="fill:#ffffff;fill-rule:evenodd;stroke:#cfcfcf;stroke-width:1;stroke-opacity:1;stroke-miterlimit:4;stroke-dasharray:4,4;fill-opacity:1;stroke-dashoffset:0" />
  <g
     transform="translate(-10,-8)"
     style="fill:#888888;opacity:0.4"
     id="g10-4">
    <path
       inkscape:connector-curvature="0"
       d="m 14,12 0,2 14,0 0,-2 z"
       id="path12-6"
       style="" />
    <path
       inkscape:connector-curvature="0"
       d="m 14,24 0,2 8,0 0,-2 z"
       id="path14-0"
       style="" />
    <path
       inkscape:connector-curvature="0"
       d="m 14,18 0,2 14,0 0,-2 z"
       id="path16-7"
       style="" />
  </g>
  <path
     inkscape:connector-curvature="0"
     id="path8"
     d="M 13.667969,8 28.332031,8 C 32,8 32,8 32,11 l 0,18 c 0,3 0,3 -3.667969,3 L 13.667969,32 C 10,32 10,32 10,29 l 0,-18 c 0,-3 0,-3 3.667969,-3 z"
     style="fill:#ffffff;fill-rule:evenodd" />
  <g
     style="fill:#888"
     id="g10">
    <path
       d="M 14 12 L 14 14 L 28 14 L 28 12 Z "
       id="path12" />
    <path
       d="M 14 24 L 14 26 L 22 26 L 22 24 Z "
       id="path14" />
    <path
       d="M 14 18 L 14 20 L 28 20 L 28 18 Z "
       id="path16" />
  </g>
</svg>

<svg xmlns="http://www.w3.org/2000/svg" viewBox="0 0 32 32">
 <path d="m 4 0.5 13.997 0 c 3.501 0 3.501 0 3.501 2.875 l 0 17.25 c 0 2.875 0 2.875 -3.501 2.875 l -13.997 0 c -3.501 0 -3.501 0 -3.501 -2.875 l 0 -17.25 c 0 -2.875 0 -2.875 3.501 -2.875 z" style="stroke-dasharray:4 4;stroke-opacity:1;fill:#fff;stroke-miterlimit:4;fill-opacity:1;stroke:#cfcfcf;fill-rule:evenodd;stroke-width:1;stroke-dashoffset:0"/>
 <g transform="translate(-10,-8)" style="fill:#888;opacity:0.4">
  <path d="m 14 12 0 2 14 0 0 -2 z"/>
  <path d="m 14 24 0 2 8 0 0 -2 z"/>
  <path d="m 14 18 0 2 14 0 0 -2 z"/>
 </g>
 <path d="M 13.667969,8 28.332031,8 C 32,8 32,8 32,11 l 0,18 c 0,3 0,3 -3.667969,3 L 13.667969,32 C 10,32 10,32 10,29 l 0,-18 c 0,-3 0,-3 3.667969,-3 z" style="fill:#fff;fill-rule:evenodd"/>
 <g style="fill:#888">
  <path d="m 14 12 l 0 2 l 14 0 l 0 -2 Z"/>
  <path d="m 14 24 l 0 2 l 8 0 l 0 -2 Z"/>
  <path d="m 14 18 l 0 2 l 14 0 l 0 -2 Z"/>
 </g>
</svg>
